X: 0
T: Away In A Manger
Z: J. E. Spilman
Z: Copyright © 2005 by Douglas D. Anderson
Z: Released to the Public Domain
L: 1/4
M: 3/4
V: P1 name="Soprano"
%%MIDI program 1 19
V: P2 name="Alto"
%%MIDI program 2 60
V: P3 name="Tenor"
%%MIDI program 3 57
V: P4 name="Bass"
%%MIDI program 4 58
K: A
[V: P1]  E | A A (c/B/) | A A E | F A F | E2 E | A A B | c c e | e c A | B2 E | A A (c/B/) | A A E | F d F | E2 E | A A B | c e d | E E G | A2 (G/A/) | B B e | B B G | B A F | E2 (G/A/) | B B e | B B G | (A/G/) (A/B/) (c/^d/) | e2 f | e c (c/B/) | A A E | F d F | E2 E | A A B | c e d | E E G | A2|]
w: A- way in a_ man- ger, no crib for His bed, The lit- tle Lord Je- sus lay down His sweet head; The stars in the_ heav- ens looked down where He lay, The lit- tle Lord Je- sus, a- sleep in the hay. The_ cat- tle are low- ing, the poor Ba- by wakes But_ lit- tle Lord Je- sus, no cry-_ ing_ He_ makes. I love thee, Lord_ Je- sus, look down from the sky. And stay by my cra- dle To watch lull- a by.
[V: P2]  E | E E E | E E C | D F D | C2 C | C E E | E E E | E E ^D | E2 E | E E E | E E C | D F D | C2 C | C E E | E E F | E E G | C2 (E/F/) | G G G | G G E | ^D D D | E2 (E/F/) | G G G | G G E | (F/E/) (F/G/) A | G2 G | A E E | E E C | D F D | C2 C | C E E | E A F | E C D | C2|]
[V: P3]  E, | C C (E/D/) | C C A, | A, A, A, | A,2 A, | A, A, G, | A, A, C | C A, F, | G,2 E, | C C (E/D/) | C C A, | A, A, A, | A,2 A, | A, A, G, | A, C B, | C A, B, | A,2z |z3 |z3 |z3 |z2z |z3 |z3 |z3 |z2 D | C A, (E/D/) | C C A, | A, A, A, | A,2 A, | A, A, G, | A, C B, | C A, B, | A,2|]
[V: P4]  E, | A,, A,, A,, | A,, A,, A,, | D, D, D, | A,,2 A,, | A,, C, E, | A, A, A, | A, A, F, | E,2 E, | A,, A,, A,, | A,, A,, A,, | D, D, D, | A,,2 A,, | A,, C, E, | A, A, D, | E, E, E, | A,,2 E, | E, E, E, | E, E, E, | B,, B,, B,, | E,2 E, | E, E, E, | E, E, E, | B,, B,, B,, | E,2 E, | A,, A,, A,, | A,, A,, A,, | D, D, D, | A,,2 A,, | A,, C, E, | A, A, D, | E, E, E, | A,,2|]

